static/assets/images/networks/horizen-mono.svg

<svg width="256" height="256" viewBox="0 0 256 256" fill="none" xmlns="http://www.w3.org/2000/svg">
<path d="M231.779 53.3333L210.918 85.7614C219.782 103.26 222.889 123.108 219.795 142.476C216.702 161.843 207.566 179.739 193.692 193.611C179.817 207.484 161.912 216.623 142.532 219.726C123.151 222.83 103.285 219.738 85.7673 210.892L53.3333 231.914C77.9893 249.65 108.158 258.039 138.438 255.58C168.719 253.12 197.135 239.973 218.601 218.491C240.067 197.009 253.181 168.595 255.595 138.335C258.01 108.074 249.567 77.9424 231.779 53.3333Z" fill="black"/>
<path d="M127.995 192C143.011 191.997 157.552 186.744 169.093 177.151C180.635 167.559 188.449 154.232 191.179 139.486C171.144 135.183 150.428 135.112 130.363 139.277C110.298 143.442 91.3267 151.751 74.6667 163.67C80.5468 172.399 88.487 179.549 97.7871 184.489C107.087 189.43 117.462 192.009 127.995 192Z" fill="black"/>
<path d="M159.344 124.278C170.266 124.277 181.156 125.447 191.828 127.767C191.535 110.971 184.657 94.9614 172.676 83.1869C160.695 71.4124 144.569 64.8148 127.772 64.8148C110.974 64.8148 94.8486 71.4124 82.8676 83.1869C70.8866 94.9614 64.0086 110.971 63.7147 127.767C63.7179 130.634 63.9209 133.497 64.3225 136.335C55.4693 142.796 47.4028 150.271 40.2877 158.608C34.1403 141.152 33.3527 122.255 38.026 104.348C42.6994 86.4399 52.6201 70.3388 66.5136 58.1133C80.407 45.8878 97.6383 38.0965 115.993 35.7404C134.348 33.3843 152.989 36.5712 169.519 44.8915L201.846 23.9911C177.16 6.22888 146.936 -2.11805 116.634 0.458219C86.332 3.03449 57.9504 16.3641 36.6164 38.039C15.2823 59.7139 2.40261 88.3048 0.303943 118.647C-1.79472 148.989 7.02608 179.081 25.1728 203.487C31.2091 192.62 38.5353 182.522 46.9923 173.411C46.9923 173.411 59.5586 160.275 69.2039 153.687C95.3641 134.557 126.937 124.256 159.344 124.278Z" fill="black"/>
</svg>

<svg xmlns="http://www.w3.org/2000/svg" fill="none" viewBox="0 0 256 256"><path fill="#000" d="m231.779 53.333-20.861 32.428a93.03 93.03 0 0 1 8.877 56.715 93.07 93.07 0 0 1-26.103 51.135 93.226 93.226 0 0 1-107.925 17.281l-32.434 21.022a128 128 0 0 0 165.268-13.423 127.75 127.75 0 0 0 13.178-165.158"/><path fill="#000" d="M127.995 192a64.3 64.3 0 0 0 41.098-14.849 64.16 64.16 0 0 0 22.086-37.665 147.2 147.2 0 0 0-60.816-.209 147.1 147.1 0 0 0-55.696 24.393 64.2 64.2 0 0 0 23.12 20.819A64.3 64.3 0 0 0 127.995 192"/><path fill="#000" d="M159.344 124.278a153 153 0 0 1 32.484 3.489 64.073 64.073 0 0 0-64.056-62.952 64.06 64.06 0 0 0-44.904 18.372 64.08 64.08 0 0 0-19.153 44.58c.003 2.867.206 5.73.608 8.568a140.4 140.4 0 0 0-24.035 22.273A92.8 92.8 0 0 1 66.514 58.113a92.78 92.78 0 0 1 103.005-13.221l32.327-20.9a127.416 127.416 0 0 0-165.23 14.047 127.45 127.45 0 0 0-11.443 165.448 154.5 154.5 0 0 1 21.82-30.076s12.566-13.136 22.21-19.724a152.53 152.53 0 0 1 90.141-29.409"/></svg>
